X: 5348
T: Bubba Martin's Old Time Kick About
R: hornpipe
M: 4/4
K: Gmajor
|:D2|G2 BA GBdB|ecAG FADG|FDAF FDcA|FDdB cAFD|
G2 BA GBdB|ecAG FADG|FDcA FDdB|cAFd G2:|
|:df|g2 Bd gfed|cAFE Dd^cd|eAce d2 Gd|cABG Afef|
gGBd gbag|fecA e2 ^cd|ec’af dbgd|fdcA G2:|

